immagini/external-link.svg

<svg xmlns="http://www.w3.org/2000/svg"  viewBox="0 0 50 50" width="50px" height="50px"><path d="M 33.40625 0 C 32.855469 0.0507813 32.449219 0.542969 32.5 1.09375 C 32.550781 1.644531 33.042969 2.050781 33.59375 2 L 46.5625 2 L 25.6875 22.90625 C 25.390625 23.148438 25.253906 23.535156 25.339844 23.910156 C 25.425781 24.28125 25.71875 24.574219 26.089844 24.660156 C 26.464844 24.746094 26.851563 24.609375 27.09375 24.3125 L 48 3.4375 L 48 16.40625 C 47.996094 16.765625 48.183594 17.101563 48.496094 17.285156 C 48.808594 17.464844 49.191406 17.464844 49.503906 17.285156 C 49.816406 17.101563 50.003906 16.765625 50 16.40625 L 50 0 L 33.59375 0 C 33.5625 0 33.53125 0 33.5 0 C 33.46875 0 33.4375 0 33.40625 0 Z M 2 10 C 1.476563 10 0.941406 10.183594 0.5625 10.5625 C 0.183594 10.941406 0 11.476563 0 12 L 0 48 C 0 48.523438 0.183594 49.058594 0.5625 49.4375 C 0.941406 49.816406 1.476563 50 2 50 L 38 50 C 38.523438 50 39.058594 49.816406 39.4375 49.4375 C 39.816406 49.058594 40 48.523438 40 48 L 40 18 C 40.003906 17.640625 39.816406 17.304688 39.503906 17.121094 C 39.191406 16.941406 38.808594 16.941406 38.496094 17.121094 C 38.183594 17.304688 37.996094 17.640625 38 18 L 38 48 L 2 48 L 2 12 L 32 12 C 32.359375 12.003906 32.695313 11.816406 32.878906 11.503906 C 33.058594 11.191406 33.058594 10.808594 32.878906 10.496094 C 32.695313 10.183594 32.359375 9.996094 32 10 Z"/></svg>

<svg xmlns="http://www.w3.org/2000/svg" xmlns:xlink="http://www.w3.org/1999/xlink" viewBox="0,0,256,256" width="50px" height="50px" fill-rule="nonzero"><g fill="#ffffff" fill-rule="nonzero" stroke="none" stroke-width="1" stroke-linecap="butt" stroke-linejoin="miter" stroke-miterlimit="10" stroke-dasharray="" stroke-dashoffset="0" font-family="none" font-weight="none" font-size="none" text-anchor="none" style="mix-blend-mode: normal"><g transform="scale(5.12,5.12)"><path d="M33.40625,0c-0.55078,0.05078 -0.95703,0.54297 -0.90625,1.09375c0.05078,0.55078 0.54297,0.95703 1.09375,0.90625h12.96875l-20.875,20.90625c-0.29687,0.24219 -0.43359,0.62891 -0.34766,1.00391c0.08594,0.37109 0.37891,0.66406 0.75,0.75c0.375,0.08594 0.76172,-0.05078 1.00391,-0.34766l20.90625,-20.875v12.96875c-0.00391,0.35938 0.18359,0.69531 0.49609,0.87891c0.3125,0.17969 0.69531,0.17969 1.00781,0c0.3125,-0.18359 0.5,-0.51953 0.49609,-0.87891v-16.40625h-16.40625c-0.03125,0 -0.0625,0 -0.09375,0c-0.03125,0 -0.0625,0 -0.09375,0zM2,10c-0.52344,0 -1.05859,0.18359 -1.4375,0.5625c-0.37891,0.37891 -0.5625,0.91406 -0.5625,1.4375v36c0,0.52344 0.18359,1.05859 0.5625,1.4375c0.37891,0.37891 0.91406,0.5625 1.4375,0.5625h36c0.52344,0 1.05859,-0.18359 1.4375,-0.5625c0.37891,-0.37891 0.5625,-0.91406 0.5625,-1.4375v-30c0.00391,-0.35937 -0.18359,-0.69531 -0.49609,-0.87891c-0.3125,-0.17969 -0.69531,-0.17969 -1.00781,0c-0.3125,0.18359 -0.5,0.51953 -0.49609,0.87891v30h-36v-36h30c0.35938,0.00391 0.69531,-0.18359 0.87891,-0.49609c0.17969,-0.3125 0.17969,-0.69531 0,-1.00781c-0.18359,-0.3125 -0.51953,-0.5 -0.87891,-0.49609z"></path></g></g></svg>
